X:1
T:Title
%%score { ( 1 3 ) | 2 }
L:1/8
Q:1/4=96
M:4/4
K:D
V:1 treble nm="Grand Piano"
V:3 treble 
V:2 bass 
V:1
 [FA]>[=F^G] [^FA]>[=GB] [FA]>F [FA]>[Fd] | [Gd]2 [Gc]2 [CEG]4 | %2
w: D.~B.~Towner * * * * * * *||
 [CEG]>[=C^DF] [^CEG]>[FA] [Ac]>[CGB] [=DFA]>[A,EG] | [A,DF]2 [GB]2 [FA]4 | %4
w: ||
 [FA]>[=F^G] [^FA]>[GB] [FA]>F [FA]>[Fd] | [Gd]2 [Gc]2 [EG]4 | %6
w: ||
 [Gc]>[Gc] [CGB]>[CGA] [DFA]<[DFd] [DGB]>[B,EG] | [DF]2[K:bass] [G,CE]2 [F,D]4 | [FA]6 z2 | %9
w: |||
 .[Gd]2 .[Gc]2 [CEG]4 | (3:2:2[CE-G-]2 [CE-G-] [EG]4 (3[A,CE][A,DF][CEG] | %11
w: ||
 .[DGB]2 .[DFA]2 [A,DF]4 | [FA]6 z2 | .[Gd]2 .[Gc]2 [EG]4 | %14
w: |||
 [Gc]>[Gc] [CGB]>[CGA] [DFA]<[DFd] [DGB]>[B,EG] | [DF]2[K:bass] [G,CE]2 [F,D]4 |] %16
w: ||
V:2
 [D,D]>[D,D] [D,D]>[D,D] [D,D]>[D,D] [D,D]>[D,A,] | [E,A,]2 [E,A,]2 A,4 | %2
 A,,>A,, A,,>[A,,A,] [A,,A,]>A,, A,,>A,, | D,2 [D,D]2 [D,D]4 | %4
 [D,D]>[D,D] [D,D]>[D,D] [D,D]>[D,D] [D,D]>[D,A,] | [E,A,]2 [E,A,]2 [A,C]4 | %6
 [A,,A,]>[A,,A,] A,,>A,, D,<D, G,>G, | A,2 A,,2 D,4 | %8
 D,2 (3D,D,D, (3D,-[D,G]D, (3:2:2[D,A,]2 [D,A,] | .[E,A,]2 .[E,A,]2 A,4 | %10
 (3:2:2A,,2 A,, (3A,,A,,A,, (3A,,-[A,,F]A,, (3A,,A,,A,, | .D,2 .D,2 D,4 | %12
 D,2 (3D,D,D, (3D,-[D,G]D, (3:2:2[D,A,]2 [D,A,] | .[E,A,]2 .[E,A,]2 [A,C]4 | %14
 [A,,A,]>[A,,A,] A,,>A,, D,<D, G,>G, | A,2 A,,2 D,4 |] %16
V:3
 x8 | x8 | x8 | x8 | x8 | x8 | x8 | x2[K:bass] x6 | D2 (3DDD (3D-[DB][DFA] (3[DF][FA][Fd] | x8 | %10
 z2 (3CCC (3A,-[A,A][A,EG] z2 | x8 | D2 (3DDD (3D-[DB][DFA] (3[DF][FA][Fd] | x8 | x8 | %15
 x2[K:bass] x6 |] %16

